X: 27
T:Tarbolton
N:Simple Version
M:C
L:1/8
K:EMinor
E2 eB e2 BA| GBAF AGFE| D2 d^c d2 AG| FDAG FDDF|
EBed efge| fedf edBA| GABG FGAc| BGAF GEED :|
|: gfef gfbe| gebe gfe^c| d2 fd adfd| BdAG FDDF|
G2 BG F2 AF| EGef gfed| B2 dB AFAc| BGAF GE E2 :|
